src/assets/icons/multicolor/bell.multicolor.svg

<svg width="40" height="40" fill="none">
  <circle cx="20" cy="20" r="20" fill="#fff"/>
  <path fill="#093971" d="M20 0C8.95437 0 0 8.95431 0 20c0 11.0457 8.95437 20 20 20 11.0457 0 20-8.9543 20-20C40 8.95431 31.0457 0 20 0zm0 38.75C9.66125 38.75 1.25 30.3388 1.25 20 1.25 9.66125 9.66125 1.25 20 1.25c10.3388 0 18.75 8.41125 18.75 18.75 0 10.3388-8.4112 18.75-18.75 18.75z"/>
  <path fill="#093971" d="M26.5056 22.6567l.9734-3.6329c.7593-2.7651-.5911-5.0959-1.9783-6.2517-.3916-.3257-.8209-.6048-1.2692-.85l.0662-.2472c.2984-1.1136-.3552-2.25982-1.4569-2.55503-1.1017-.29521-2.2408.37062-2.5392 1.48423l-.0764.2852c-.4619-.0012-.9229.025-1.3755.1046-1.968.3463-4.2671 1.836-4.967 4.3842l-.9741 3.6353c-.6914 2.5803-2.1861 4.5526-4.44261 5.8624-.13448.0782-.21494.2251-.20882.3813.00622.1558.09863.2953.23916.3606l3.61537 1.6783c.6819.3165 1.3045.5903 1.8937.8356.3269 1.5691 1.4587 2.823 2.9557 3.2242 1.4974.4012 3.1051-.1196 4.1725-1.3155.63.0818 1.3028.1556 2.0479.2219l3.9697.3541c.1543.0141.3037-.0606.3875-.1928.0836-.1316.0875-.2995.0098-.4346-1.361-2.3695-1.7117-4.8364-1.0429-7.3322zm-5.4048-11.8384c.179-.6681.8626-1.06769 1.5235-.89058.661.17708 1.0532.86488.8742 1.53298l-.0209.078c-.7659-.3273-1.5793-.5383-2.4031-.6223l.0263-.0981zm-4.9286 5.6062c-.0008-.0003-.0016-.0005-.0024-.0007-.2202-.0607-.3493-.2901-.2884-.5128.5188-1.8879 2.3266-2.6854 3.3136-2.8587 1.7302-.3048 3.6261.2045 4.983 1.3344.1758.1462.2.4094.054.5881-.1462.1781-.4072.2043-.5832.0571-1.174-.9782-2.8184-1.4206-4.3155-1.1563-.7942.1396-2.2464.7718-2.6535 2.2545-.0613.2222-.2882.3531-.5076.2944zm3.9313 13.4688c-.8301.6703-1.9132.9255-2.9262.6541-1.0127-.2713-1.8226-1.0338-2.2066-2.0286l.0004.0001c.1523.0582.3006.1122.449.1658.0729.0265.1475.0551.2198.081.0536.0191.1056.0361.1585.0541 1.1384.3968 2.208.6839 3.3905.9111.0693.0134.1366.0275.2067.0407.0874.016.1785.0309.2678.0462.1403.0246.2797.0494.4242.0725.0057.0011.0106.002.0159.003z"/>
</svg>

<svg width="40" height="40" viewBox="0 0 40 40" fill="none" xmlns="http://www.w3.org/2000/svg">
<circle cx="20" cy="20" r="20" fill="white"/>
<path d="M20 0C8.95437 0 0 8.95431 0 20C0 31.0457 8.95437 40 20 40C31.0457 40 40 31.0457 40 20C40 8.95431 31.0457 0 20 0ZM20 38.75C9.66125 38.75 1.25 30.3388 1.25 20C1.25 9.66125 9.66125 1.25 20 1.25C30.3388 1.25 38.75 9.66125 38.75 20C38.75 30.3388 30.3388 38.75 20 38.75Z" fill="#093971"/>
<path d="M26.5056 22.6567L27.479 19.0238C28.2383 16.2587 26.8879 13.9279 25.5007 12.7721C25.1091 12.4464 24.6798 12.1673 24.2315 11.9221L24.2977 11.6749C24.5961 10.5613 23.9425 9.41508 22.8408 9.11987C21.7391 8.82466 20.6 9.49049 20.3016 10.6041L20.2252 10.8893C19.7633 10.8881 19.3023 10.9143 18.8497 10.9939C16.8817 11.3402 14.5826 12.8299 13.8827 15.3781L12.9086 19.0134C12.2172 21.5937 10.7225 23.566 8.46599 24.8758C8.33151 24.954 8.25105 25.1009 8.25717 25.2571C8.26339 25.4129 8.3558 25.5524 8.49633 25.6177L12.1117 27.296C12.7936 27.6125 13.4162 27.8863 14.0054 28.1316C14.3323 29.7007 15.4641 30.9546 16.9611 31.3558C18.4585 31.757 20.0662 31.2362 21.1336 30.0403C21.7636 30.1221 22.4364 30.1959 23.1815 30.2622L27.1512 30.6163C27.3055 30.6304 27.4549 30.5557 27.5387 30.4235C27.6223 30.2919 27.6262 30.124 27.5485 29.9889C26.1875 27.6194 25.8368 25.1525 26.5056 22.6567ZM21.1008 10.8183C21.2798 10.1502 21.9634 9.75061 22.6243 9.92772C23.2853 10.1048 23.6775 10.7926 23.4985 11.4607L23.4776 11.5387C22.7117 11.2114 21.8983 11.0004 21.0745 10.9164L21.1008 10.8183ZM16.1722 16.4245C16.1714 16.4242 16.1706 16.424 16.1698 16.4238C15.9496 16.3631 15.8205 16.1337 15.8814 15.911C16.4002 14.0231 18.208 13.2256 19.195 13.0523C20.9252 12.7475 22.8211 13.2568 24.178 14.3867C24.3538 14.5329 24.378 14.7961 24.232 14.9748C24.0858 15.1529 23.8248 15.1791 23.6488 15.0319C22.4748 14.0537 20.8304 13.6113 19.3333 13.8756C18.5391 14.0152 17.0869 14.6474 16.6798 16.1301C16.6185 16.3523 16.3916 16.4832 16.1722 16.4245ZM20.1035 29.8933C19.2734 30.5636 18.1903 30.8188 17.1773 30.5474C16.1646 30.2761 15.3547 29.5136 14.9707 28.5188L14.9711 28.5189C15.1234 28.5771 15.2717 28.6311 15.4201 28.6847C15.493 28.7112 15.5676 28.7398 15.6399 28.7657C15.6935 28.7848 15.7455 28.8018 15.7984 28.8198C16.9368 29.2166 18.0064 29.5037 19.1889 29.7309C19.2582 29.7443 19.3255 29.7584 19.3956 29.7716C19.483 29.7876 19.5741 29.8025 19.6634 29.8178C19.8037 29.8424 19.9431 29.8672 20.0876 29.8903C20.0933 29.8914 20.0982 29.8923 20.1035 29.8933Z" fill="#093971"/>
</svg>
